X: 642
T: the Man of the House   #2
R: reel
%S: s:2 b:9(4+6)
B: Francis O'Neill: "The Dance Music of Ireland" (1907) #642
Z: Frank Nordberg - http://www.musicaviva.com
F: http://www.musicaviva.com/abc/tunes/ireland/oneill-1001/0642/oneill-1001-0642-1.abc
N: Compacted via added repeat with multiple endings [JC]
M: C|
L: 1/8
K: Em
"^A"[|]\
D | E2BE GABG | E2BE FDAD | E2BE GABc | dBcA BEE :| e "^B"|:: efge fgaf |
| gfed [1 edBd :|[2 Beed :|[3 efga |] bgaf gfed | eBBA GEE |]
